assets/images/logout.svg

<svg fill="none" height="800" viewBox="0 0 24 24" width="800" xmlns="http://www.w3.org/2000/svg"><path d="m15 4h3c1.1046 0 2 .89543 2 2v12c0 1.1046-.8954 2-2 2h-3m-7-12-4 4m0 0 4 4m-4-4h12" stroke="#000" stroke-linecap="round" stroke-linejoin="round" stroke-width="1.5"/></svg>

<?xml version="1.0" encoding="utf-8"?><!-- Uploaded to: SVG Repo, www.svgrepo.com, Generator: SVG Repo Mixer Tools -->
<svg width="800px" height="800px" viewBox="0 0 24 24" fill="none" xmlns="http://www.w3.org/2000/svg">
<path d="M15 4H18C19.1046 4 20 4.89543 20 6V18C20 19.1046 19.1046 20 18 20H15M8 8L4 12M4 12L8 16M4 12L16 12" stroke="#000000" stroke-width="1.5" stroke-linecap="round" stroke-linejoin="round"/>
</svg>
